X: 68
%
U:~=!turn!
T: Brown's Reel
C:
O:Scotland
B:Keith Norman MacDonald : "The Skye collection of the best reels & strathspeys extant" : 1887
Z:Ralph Palmer
R:Reel
M:C
L:1/8
K:Bb
B,DFB AFcF | Bdce dfBd | B,DCE DFBd | [1 cAFA B2 B2 :| [2 cAFA B2 || de | fdBd bagf |
edcB AFcF | BFdF cFec | AFGA Bcde | fdBd bagf | edcB AFcF | Bdce dfeg | fFGA B2 B2 |]


